!!!OTL: KEIN FEUER KEINE KOHLE KANN BRENNEN
!!!ARE: Europa, Mitteleuropa, Deutschland
!!!SCT: E0507
!!!YEM: Copyright 1995, estate of Helmut Schaffrath.
**kern
*ICvox
*Ivox
*M3/4
*k[b-]
*F:
{4c
=1
4f
4f
8g
8g
=2
4a
4.a}
{8b-
=3
4cc
8dd
8cc
8b-
8a
=4
2g}
{4cc
=5
4dd
8b-
8dd
8ff
8dd
=6
8dd
8cc
4cc}
{8a
8cc
=7
8cc
8b-
4a
4g
=8
4.f}
{8a
8g
8b-
=9
4.a
8cc
8b-
8dd
=10
4cc
8ff
8r}
{8a
8cc
=11
8cc
8b-
4a
4g
=12
2f}
==
!!!AGN: Liebes - Lied
!!!ONB: ESAC (Essen Associative Code) Database: ERK1
!!!AMT: simple triple
!!!AIN: vox
!!!EED: Helmut Schaffrath
!!!EEV: 1.0
*-
